X: 1292
T: Blackwattle Reel
C:Sheryn Doernberg, 1979
B: australian traditional tunes wiki
M:4/4
L:1/8
R: Reel
Q: 1/4=100
K:G
V:1 
|:D2|"G"GFGA BAGF|G2D2"D7"D2D2|"G"GFGA BAGF|G2d2"D7"d2D2|
"G"GFGA BAGF|G2D2"D7"D2Bc|dcBA "C"GFED|"D7"E2F2"G"G2:|
|:d2|"G"gfgdB2d2|"C"edcB"D7"A2d2|"G"gfgd"Em"B2e2|"D7"dcBA"G"G2d2|
gfgdB2d2|"C"edcB"D7"A2Bc|"G"dcBA "C"GFED|"D7"E2F2"G"G2:|
% abcbook-tune_id 6342d53a1e966cec1dffea1f


% abcbook-boost 0
% abcbook-tablature 
% abcbook-transpose 
% abcbook-lastupdated 1665324357671
% abcbook-soundfonts 
% abcbook-repeats 1
% NFF Book 2006

